X: 82
T: No_43_The_War_Bundle_Causes_a_Fog.krn
N: Derived from No_43_The_War_Bundle_Causes_a_Fog.krn
%%abc-version 2.0
%%abcx-abcm2ps-target-version 5.9.1 (29 Sep 2008)
%%abc-creator hum2abc beta
%%abcx-conversion-date 2019/03/15 08:35:44
%%humdrum-veritas 1179298402
%%humdrum-veritas-data 4226405658
%%linebreak <none>
%%barnumbers 0
L: 1/8
M: 3/4
K: B clef=bass
[K:clef=bass][M:3/4]z4(3CCC ]|:  
C2C2CC ||  
[M:2/4](3:2:7B,B,B,/ z/ CCC ||  
[M:3/4]B,2B,2B,G, ||  
[M:2/4](3:2:7F,F,F,/ z/ B,B,C ||  
[M:3/4]B,2B,2B,G, ||  
[M:2/4](3F,F,F, (3G,G,G, ||  
[M:3/4]F,2F, z F,D, ||  
[M:2/4](3C,C,C, (3B,,C,C, ||  
[M:3/4]B,,2B,,2B,,G,, ||  
[M:2/4](3:2:7F,,F,,F,,/ z/ B,,B,,C, ||  
[M:3/4]B,,2B,,2B,,G,, | 
F,,4(3CCC [I:setbarnb 14]:|]  
F,,4z2 |]  



